packages/foundations/assets/icons/functional/images/navigation/log_in_14.svg

<svg width="14" height="14" viewBox="0 0 14 14" fill="none" xmlns="http://www.w3.org/2000/svg">
<g clip-path="url(#clip0_187_52)">
<path fill-rule="evenodd" clip-rule="evenodd" d="M12.25 4.20001C12.25 3.04081 11.3092 2.10001 10.15 2.10001H8.75C8.3566 2.10001 8.05 2.42831 8.05 2.80001C8.05 3.19411 8.3566 3.50001 8.75 3.50001H10.15C10.5217 3.50001 10.85 3.80661 10.85 4.20001V9.80001C10.85 10.1941 10.5217 10.5 10.15 10.5H8.75C8.3566 10.5 8.05 10.8066 8.05 11.2C8.05 11.5717 8.3566 11.9 8.75 11.9H10.15C11.3092 11.9 12.25 10.9592 12.25 9.80001V4.20001ZM1.75 7.00001C1.75 7.37171 2.0559 7.70001 2.45 7.70001H6.3658L5.4684 8.59671C5.3158 8.72831 5.25 8.90331 5.25 9.10001C5.25 9.49341 5.5559 9.80001 5.95 9.80001C6.125 9.80001 6.3 9.73421 6.4533 9.60331L8.5533 7.48091C8.6842 7.35001 8.75 7.17501 8.75 7.00001C8.75 6.82501 8.6842 6.65001 8.5533 6.49671L6.4533 4.39671C6.3217 4.26581 6.125 4.20001 5.95 4.20001C5.5783 4.20001 5.25 4.50591 5.25 4.90001C5.25 5.07501 5.3158 5.27171 5.4684 5.40331L6.3658 6.30001H2.45C2.0559 6.30001 1.75 6.60661 1.75 7.00001Z" fill="#1A1C1F"/>
</g>
<defs>
<clipPath id="clip0_187_52">
<rect width="14" height="14" fill="white"/>
</clipPath>
</defs>
</svg>

<svg xmlns="http://www.w3.org/2000/svg" width="14" height="14" fill="none"><g clip-path="url(#a)"><path fill="#1A1C1F" fill-rule="evenodd" d="M12.25 4.2a2.1 2.1 0 0 0-2.1-2.1h-1.4c-.393 0-.7.328-.7.7 0 .394.307.7.7.7h1.4c.372 0 .7.307.7.7v5.6c0 .394-.328.7-.7.7h-1.4c-.393 0-.7.307-.7.7 0 .372.307.7.7.7h1.4a2.1 2.1 0 0 0 2.1-2.1zM1.75 7c0 .372.306.7.7.7h3.916l-.898.897a.64.64 0 0 0-.218.503c0 .393.306.7.7.7.175 0 .35-.066.503-.197l2.1-2.122A.68.68 0 0 0 8.75 7a.77.77 0 0 0-.197-.503l-2.1-2.1A.73.73 0 0 0 5.95 4.2c-.372 0-.7.306-.7.7 0 .175.066.372.218.503l.898.897H2.45c-.394 0-.7.307-.7.7" clip-rule="evenodd"/></g><defs><clipPath id="a"><path fill="#fff" d="M0 0h14v14H0z"/></clipPath></defs></svg>
